public/img/logo/favicon.svg

<svg xmlns="http://www.w3.org/2000/svg" xmlns:xlink="http://www.w3.org/1999/xlink" width="500" zoomAndPan="magnify" viewBox="0 0 375 374.999991" height="500" preserveAspectRatio="xMidYMid meet" version="1.0"><defs><clipPath id="cb78c1facb"><path d="M 296 95 L 354.925781 95 L 354.925781 272 L 296 272 Z M 296 95 " clip-rule="nonzero"/></clipPath><clipPath id="a293203cb4"><path d="M 28.847656 95 L 89 95 L 89 272 L 28.847656 272 Z M 28.847656 95 " clip-rule="nonzero"/></clipPath><clipPath id="e3ce46087c"><path d="M 196 130 L 354.925781 130 L 354.925781 299 L 196 299 Z M 196 130 " clip-rule="nonzero"/></clipPath></defs><path fill="#ec6753" d="M 294.628906 121.996094 L 201.277344 4.546875 L 352.714844 91.96875 Z M 294.628906 121.996094 " fill-opacity="1" fill-rule="nonzero"/><path fill="#ec6753" d="M 194.300781 374.753906 L 194.664062 303.46875 L 346.878906 286.671875 Z M 194.300781 374.753906 " fill-opacity="1" fill-rule="nonzero"/><g clip-path="url(#cb78c1facb)"><path fill="#ec6753" d="M 355.203125 271.308594 L 296.910156 125.988281 L 355.203125 95.847656 Z M 355.203125 271.308594 " fill-opacity="1" fill-rule="nonzero"/></g><path fill="#ec6753" d="M 190.070312 303.46875 L 189.71875 374.785156 L 37.082031 286.660156 Z M 190.070312 303.46875 " fill-opacity="1" fill-rule="nonzero"/><path fill="#ec6753" d="M 90.691406 120.839844 L 31.363281 91.910156 L 182.742188 4.503906 Z M 90.691406 120.839844 " fill-opacity="1" fill-rule="nonzero"/><g clip-path="url(#a293203cb4)"><path fill="#ec6753" d="M 28.773438 95.746094 L 88.410156 124.832031 L 28.773438 271.472656 Z M 28.773438 95.746094 " fill-opacity="1" fill-rule="nonzero"/></g><path fill="#ec6753" d="M 95.289062 126.03125 L 290.050781 127.171875 L 192.382812 296.796875 Z M 95.289062 126.03125 " fill-opacity="1" fill-rule="nonzero"/><path fill="#ec6753" d="M 289.230469 122.578125 L 96.0625 121.4375 L 191.988281 0.214844 Z M 289.230469 122.578125 " fill-opacity="1" fill-rule="nonzero"/><path fill="#ec6753" d="M 91.6875 128.957031 L 188.167969 298.640625 L 29.753906 281.246094 Z M 91.6875 128.957031 " fill-opacity="1" fill-rule="nonzero"/><g clip-path="url(#e3ce46087c)"><path fill="#ec6753" d="M 293.632812 130.128906 L 354.238281 281.246094 L 196.613281 298.640625 Z M 293.632812 130.128906 " fill-opacity="1" fill-rule="nonzero"/></g></svg>

<svg
    xmlns="http://www.w3.org/2000/svg"
    width="500"
    height="500"
    viewBox="0 0 375 375"
    preserveAspectRatio="xMidYMid meet"
  >
    <defs>
      <clipPath id="clip1">
        <path d="M 296 95 L 354.93 95 L 354.93 272 L 296 272 Z" />
      </clipPath>
      <clipPath id="clip2">
        <path d="M 28.85 95 L 89 95 L 89 272 L 28.85 272 Z" />
      </clipPath>
      <clipPath id="clip3">
        <path d="M 196 130 L 354.93 130 L 354.93 299 L 196 299 Z" />
      </clipPath>
    </defs>

    <path fill="#ec6753" d="M294.63 121.996L201.28 4.547l151.44 87.422z" />
    <path fill="#ec6753" d="M194.3 374.754l.36-71.285 152.21-16.797z" />
    <g clipPath="url(#clip1)">
      <path fill="#ec6753" d="M355.2 271.309L296.91 125.988 355.2 95.848z" />
    </g>
    <path fill="#ec6753" d="M190.07 303.469l-.35 71.316-152.64-88.125z" />
    <path fill="#ec6753" d="M90.69 120.84l-59.33-28.93L182.74 4.504z" />
    <g clipPath="url(#clip2)">
      <path fill="#ec6753" d="M28.77 95.746l59.64 29.086-59.64 146.64z" />
    </g>
    <path fill="#ec6753" d="M95.29 126.03h194.76L192.38 296.797z" />
    <path fill="#ec6753" d="M289.23 122.578H96.06L191.99 0.215z" />
    <path fill="#ec6753" d="M91.69 128.957l96.48 169.684-158.41-17.395z" />
    <g clipPath="url(#clip3)">
      <path fill="#ec6753" d="M293.63 130.129l60.61 151.117-157.63 17.395z" />
    </g>
  </svg>
